www/assets/icons/earbuds.svg

<svg width="24" height="24" viewBox="0 0 24 24" xmlns="http://www.w3.org/2000/svg" fill='currentColor'><path d="M6.2 3.00683C4.44 2.88683 3 4.41683 3 6.18683V15.9968C3 18.7568 5.24 20.9968 8 20.9968C10.76 20.9968 13 18.7568 13 15.9968V7.99683C13 6.33683 14.34 4.99683 16 4.99683C17.66 4.99683 19 6.33683 19 7.99683V14.9968H18.17C16.56 14.9968 15.11 16.1768 15 17.7868C14.88 19.4768 16.16 20.8868 17.8 20.9968C19.56 21.1168 21 19.5768 21 17.8168V7.99683C21 5.23683 18.76 2.99683 16 2.99683C13.24 2.99683 11 5.23683 11 7.99683V15.9968C11 17.6568 9.66 18.9968 8 18.9968C6.34 18.9968 5 17.6568 5 15.9968V8.99683H5.83C7.44 8.99683 8.89 7.81683 9 6.20683C9.11 4.52683 7.83 3.10683 6.2 3.00683Z"/></svg>

<svg xmlns="http://www.w3.org/2000/svg" width="24" height="24" viewBox="0 0 24 24" fill='currentColor'><path d="M6.2 3.007C4.44 2.887 3 4.417 3 6.187v9.81c0 2.76 2.24 5 5 5s5-2.24 5-5v-8c0-1.66 1.34-3 3-3s3 1.34 3 3v7h-.83c-1.61 0-3.06 1.18-3.17 2.79a3 3 0 0 0 2.8 3.21c1.76.12 3.2-1.42 3.2-3.18v-9.82c0-2.76-2.24-5-5-5s-5 2.24-5 5v8c0 1.66-1.34 3-3 3s-3-1.34-3-3v-7h.83c1.61 0 3.06-1.18 3.17-2.79.11-1.68-1.17-3.1-2.8-3.2"/></svg>
